public/piece/cardinal/wR.svg

<?xml version="1.0" encoding="UTF-8" standalone="no"?>
<svg
   xmlns:dc="http://purl.org/dc/elements/1.1/"
   xmlns:cc="http://creativecommons.org/ns#"
   xmlns:rdf="http://www.w3.org/1999/02/22-rdf-syntax-ns#"
   xmlns:svg="http://www.w3.org/2000/svg"
   xmlns="http://www.w3.org/2000/svg"
   xmlns:xlink="http://www.w3.org/1999/xlink"
   xmlns:sodipodi="http://sodipodi.sourceforge.net/DTD/sodipodi-0.dtd"
   xmlns:inkscape="http://www.inkscape.org/namespaces/inkscape"
   id="svg19"
   viewBox="0 0 50 50"
   version="1.1"
   text-rendering="geometricPrecision"
   shape-rendering="geometricPrecision"
   image-rendering="optimizeQuality"
   fill-rule="evenodd"
   clip-rule="evenodd"
   height="50mm"
   width="50mm"
   sodipodi:docname="wR.svg"
   inkscape:version="0.92.4 (5da689c313, 2019-01-14)">
  <sodipodi:namedview
     pagecolor="#ffffff"
     bordercolor="#666666"
     borderopacity="1"
     objecttolerance="10"
     gridtolerance="10"
     guidetolerance="10"
     inkscape:pageopacity="0"
     inkscape:pageshadow="2"
     inkscape:window-width="1920"
     inkscape:window-height="1001"
     id="namedview16"
     showgrid="false"
     inkscape:zoom="1.2109697"
     inkscape:cx="27.607484"
     inkscape:cy="27.211599"
     inkscape:window-x="-9"
     inkscape:window-y="-9"
     inkscape:window-maximized="1"
     inkscape:current-layer="svg19" />
  <metadata
     id="metadata23">
    <rdf:RDF>
      <cc:Work
         rdf:about="">
        <dc:format>image/svg+xml</dc:format>
        <dc:type
           rdf:resource="http://purl.org/dc/dcmitype/StillImage" />
        <dc:title />
      </cc:Work>
    </rdf:RDF>
  </metadata>
  <defs
     id="defs7">
    <linearGradient
       gradientUnits="userSpaceOnUse"
       y2="-156.13"
       y1="-156.13"
       x2="2904.7"
       x1="2811.6"
       id="linearGradient3588-7">
      <stop
         id="stop2"
         offset="0"
         style="stop-color:#ffffff"
         stop-color="#fff" />
      <stop
         id="stop4"
         offset="1"
         style="stop-color:#b4b4b4;stop-opacity:1"
         stop-opacity="0"
         stop-color="#fff" />
    </linearGradient>
    <linearGradient
       gradientUnits="userSpaceOnUse"
       y2="-506.05292"
       x2="4547.9951"
       y1="-638.76691"
       x1="4547.9951"
       id="linearGradient1256-1"
       xlink:href="#W"
       gradientTransform="matrix(0.32496876,0,0,0.28633041,-1452.9564,188.89836)" />
    <linearGradient
       gradientTransform="matrix(0.7744,0,0,-0.7744,-52.3103,348.9685)"
       y2="471.47299"
       x2="3291.1646"
       y1="471.47299"
       x1="3132.2747"
       gradientUnits="userSpaceOnUse"
       id="W">
      <stop
         id="stop60"
         style="stop-color:#ffffff;stop-opacity:1"
         offset="0" />
      <stop
         id="stop62"
         style="stop-color:#dcdcdc;stop-opacity:1"
         offset="1" />
    </linearGradient>
    <linearGradient
       inkscape:collect="always"
       xlink:href="#W-5"
       id="linearGradient1256-1-8"
       x1="4547.9951"
       y1="-638.76691"
       x2="4547.9951"
       y2="-506.05292"
       gradientUnits="userSpaceOnUse"
       gradientTransform="matrix(0.3420773,0,0,0.28370273,-1530.7659,187.39425)" />
    <linearGradient
       id="W-5"
       gradientUnits="userSpaceOnUse"
       x1="3132.2747"
       y1="471.47299"
       x2="3291.1646"
       y2="471.47299"
       gradientTransform="matrix(0.7744,0,0,-0.7744,-52.3103,348.9685)">
      <stop
         offset="0"
         style="stop-color:#ffffff;stop-opacity:1"
         id="stop60-6" />
      <stop
         offset="1"
         style="stop-color:#e6e6e6;stop-opacity:1"
         id="stop62-3" />
    </linearGradient>
  </defs>
  <path
     id="path1711-86-4-9-7"
     inkscape:connector-curvature="0"
     sodipodi:nodetypes="ccccccccccccccccccccccccccc"
     class="st14"
     d="M 21.93179,6.5463589 V 9.479916 H 17.840819 V 6.8916081 h -5.795507 v 7.9752869 l 4.532626,3.14178 v 12.567118 l -3.850798,2.485803 v 5.213282 H 9.658912 v 5.178758 H 25.000018 40.341125 V 38.274878 H 37.272897 V 33.061596 L 33.422098,30.575793 V 18.043199 l 4.532627,-3.210828 V 6.8916081 H 32.159217 V 9.479916 H 27.727332 V 6.5463589 h -2.897771 z"
     style="fill:url(#linearGradient1256-1-8);fill-opacity:1;stroke:#000000;stroke-width:1.10000002;stroke-miterlimit:4;stroke-dasharray:none;stroke-opacity:1" />
  <rect
     id="rect1745-1-7-36-2-2"
     x="18.863478"
     y="17.249113"
     class="st15"
     width="11.93197"
     height="1.3810019"
     style="fill:#000000;fill-opacity:1;stroke-width:0.33376279" />
  <rect
     id="rect1745-1-7-3-5-8-7"
     x="18.863478"
     y="29.678146"
     class="st15"
     width="11.93197"
     height="1.3810019"
     style="fill:#000000;fill-opacity:1;stroke-width:0.33376279" />
</svg>

<?xml version="1.0" encoding="UTF-8"?>
<svg width="50mm" height="50mm" clip-rule="evenodd" fill-rule="evenodd" image-rendering="optimizeQuality" shape-rendering="geometricPrecision" text-rendering="geometricPrecision" version="1.1" viewBox="0 0 50 50" xmlns="http://www.w3.org/2000/svg" xmlns:cc="http://creativecommons.org/ns#" xmlns:dc="http://purl.org/dc/elements/1.1/" xmlns:rdf="http://www.w3.org/1999/02/22-rdf-syntax-ns#">
 <defs>
  <linearGradient id="linearGradient3007" x1="4548" x2="4548" y1="-638.77" y2="-506.05" gradientTransform="matrix(.34446 0 0 .28368 -1541.6 187.38)" gradientUnits="userSpaceOnUse">
   <stop stop-color="#fff" offset="0"/>
   <stop stop-color="#d2d2d2" offset="1"/>
  </linearGradient>
 </defs>
 <metadata>
  <rdf:RDF>
   <cc:Work rdf:about="">
    <dc:format>image/svg+xml</dc:format>
    <dc:type rdf:resource="http://purl.org/dc/dcmitype/StillImage"/>
    <dc:title/>
   </cc:Work>
  </rdf:RDF>
 </metadata>
 <g clip-rule="evenodd" fill-rule="evenodd" shape-rendering="geometricPrecision">
  <path class="st14" d="m21.91 6.548v2.9333h-4.1195v-2.5881h-5.8359v7.9746l4.5642 3.1415v12.566l-3.8776 2.4856v5.2128h-3.0896v5.1783h30.896v-5.1783h-3.0896v-5.2128l-3.8776-2.4856v-12.531l4.5642-3.2105v-7.94h-5.8359v2.5881h-4.4628v-2.9333h-2.918z" fill="url(#linearGradient3007)" image-rendering="optimizeQuality" stroke="#000" stroke-width="1.1"/>
  <rect class="st15" x="18.821" y="17.25" width="12.015" height="1.3809" image-rendering="optimizeQuality" stroke-width=".33376"/>
  <rect class="st15" x="18.821" y="29.678" width="12.015" height="1.3809" image-rendering="optimizeQuality" stroke-width=".33376"/>
 </g>
</svg>
